src/assets/duotone/Cloud.svg

<svg width="24" height="24" viewBox="0 0 24 24"  xmlns="http://www.w3.org/2000/svg">
<path d="M20.4798 10.69L2.00977 15.72C2.11977 14.13 3.10977 12.46 5.10977 11.97C4.51977 9.63998 5.01977 7.44998 6.53977 5.85998C8.26977 4.04998 11.0298 3.32998 13.4098 4.06998C15.5998 4.73998 17.1398 6.53998 17.6898 9.03998C18.7798 9.28998 19.7498 9.85998 20.4798 10.69Z" />
<path opacity="0.4" d="M20.17 18.7399C19.13 19.6899 17.77 20.2199 16.35 20.2199H5.97C3.23 20.0199 2 17.9099 2 16.0299C2 15.9299 2 15.8299 2.01 15.7199L20.48 10.6899C21.05 11.2999 21.48 12.0499 21.74 12.9099C22.4 15.0799 21.8 17.3099 20.17 18.7399Z" />
</svg>

<?xml version="1.0" encoding="UTF-8"?>
<svg width="24" height="24" viewBox="0 0 24 24" xmlns="http://www.w3.org/2000/svg">
 <path d="m20.48 10.69-18.47 5.03c0.11-1.59 1.1-3.26 3.1-3.75-0.59-2.33-0.09-4.52 1.43-6.11 1.73-1.81 4.49-2.53 6.87-1.79 2.19 0.67 3.73 2.47 4.28 4.97 1.09 0.25 2.06 0.82 2.79 1.65z"/>
 <path d="m20.17 18.74c-1.04 0.95-2.4 1.48-3.82 1.48h-10.38c-2.74-0.2-3.97-2.31-3.97-4.19 0-0.1 0-0.2 0.01-0.31l18.47-5.03c0.57 0.61 1 1.36 1.26 2.22 0.66 2.17 0.06 4.4-1.57 5.83z" opacity=".4"/>
</svg>
